src/pages/homepage/images/bg-desc.svg

<svg width="340" height="100" viewBox="0 0 340 100" fill="none" xmlns="http://www.w3.org/2000/svg">
<path fill-rule="evenodd" clip-rule="evenodd" d="M80 49.3877V50.3877H0V49.3877H80Z" fill="#3242F5"/>
<path d="M161.276 36.9655L160.88 43.5411L160.88 43.5412C160.76 45.5307 161.43 47.4838 162.742 48.975L161.276 36.9655ZM161.276 36.9655L161.278 36.9684L161.457 33.9936C161.686 30.1877 160.775 26.4012 158.845 23.1214L158.845 23.1209C156.913 19.8413 154.049 17.2178 150.62 15.5896L150.62 15.5894C147.189 13.9616 143.353 13.4043 139.605 13.9926C135.858 14.5806 132.372 16.2836 129.598 18.8824C126.822 21.4814 124.888 24.8551 124.039 28.5705C123.19 32.2866 123.469 36.1718 124.836 39.7256L125.769 39.3666L124.836 39.7256C126.203 43.2797 128.601 46.3429 131.717 48.5149C134.711 50.6022 138.237 51.7755 141.872 51.9017L141.877 51.9073L142.287 51.9323L150.869 52.4554C152.841 52.5757 154.686 53.4796 155.997 54.9683C157.309 56.4596 157.98 58.4127 157.86 60.4022L157.86 60.4023L157.285 69.9536C157.061 73.6736 157.926 77.3793 159.772 80.6104C161.619 83.8418 164.367 86.4594 167.677 88.1377C170.987 89.816 174.715 90.4823 178.398 90.0518C182.082 89.6234 185.557 88.1161 188.398 85.7214L187.754 84.9568L188.398 85.7214C191.241 83.3259 193.32 80.145 194.383 76.575C195.446 73.0048 195.445 69.2008 194.382 65.6303L194.382 65.6302C193.32 62.0618 191.24 58.8812 188.397 56.4871C185.649 54.1679 182.303 52.6838 178.752 52.2027L178.7 52.1488L178.314 52.1252L167.87 51.488C165.898 51.3677 164.054 50.4637 162.742 48.9751L161.276 36.9655ZM202.226 33.8079C211.355 32.8156 217.946 24.5683 216.962 15.3988C215.977 6.22815 207.785 -0.413734 198.656 0.578524C189.527 1.57067 182.936 9.81813 183.92 18.9876C184.905 28.1581 193.096 34.8002 202.226 33.8079ZM213.786 71.461C220.151 70.7692 224.743 65.021 224.057 58.6321C223.371 52.2423 217.663 47.612 211.297 48.3039C204.933 48.9956 200.341 54.7438 201.027 61.1328C201.713 67.5227 207.421 72.153 213.786 71.461ZM120.004 99.1836C130.423 98.0512 137.946 88.6397 136.822 78.172C135.698 67.7035 126.349 60.1243 115.929 61.2567C105.51 62.3893 97.9873 71.8007 99.1111 82.2684C100.235 92.7371 109.584 100.316 120.004 99.1836Z" fill="#F1F1F1" stroke="#3242F5" stroke-width="2"/>
<path fill-rule="evenodd" clip-rule="evenodd" d="M243.125 47.3955H248.109V52.38H243.125V47.3955Z" fill="#3242F5"/>
<path fill-rule="evenodd" clip-rule="evenodd" d="M268.109 48.4922H270.901V51.2835H268.109V48.4922Z" fill="#3242F5"/>
<path fill-rule="evenodd" clip-rule="evenodd" d="M290.898 47.8945H294.886V51.8821H290.898V47.8945Z" fill="#3242F5"/>
<path fill-rule="evenodd" clip-rule="evenodd" d="M314.891 47.3955H319.875V52.38H314.891V47.3955Z" fill="#3242F5"/>
</svg>

<svg xmlns="http://www.w3.org/2000/svg" width="340" height="100" fill="none"><path fill="#3242F5" fill-rule="evenodd" d="M80 49.388v1H0v-1z" clip-rule="evenodd"/><path fill="#F1F1F1" stroke="#3242F5" stroke-width="2" d="m161.276 36.966-.396 6.575a7.54 7.54 0 0 0 1.862 5.434zm0 0 .002.002.179-2.974a19.17 19.17 0 0 0-2.612-10.873 19 19 0 0 0-8.225-7.531 18.86 18.86 0 0 0-11.015-1.597 18.93 18.93 0 0 0-10.007 4.89 19.1 19.1 0 0 0-5.559 9.688 19.2 19.2 0 0 0 .797 11.155l.933-.36-.933.36a19.05 19.05 0 0 0 6.881 8.789 18.9 18.9 0 0 0 10.155 3.387l.005.005.41.025 8.582.523a7.44 7.44 0 0 1 5.128 2.513 7.54 7.54 0 0 1 1.863 5.434l-.575 9.552a19.17 19.17 0 0 0 2.487 10.656 19 19 0 0 0 7.905 7.528 18.86 18.86 0 0 0 10.721 1.914 18.9 18.9 0 0 0 10-4.33l-.644-.765.644.764a19.08 19.08 0 0 0 5.985-9.146 19.2 19.2 0 0 0-.001-10.945 19.06 19.06 0 0 0-5.985-9.143 18.9 18.9 0 0 0-9.645-4.284l-.052-.054-.386-.024-10.444-.637a7.44 7.44 0 0 1-5.128-2.513zm40.95-3.158c9.129-.992 15.72-9.24 14.736-18.41-.985-9.17-9.177-15.812-18.306-14.82-9.129.993-15.72 9.24-14.736 18.41.985 9.17 9.176 15.812 18.306 14.82Zm11.56 37.653c6.365-.692 10.957-6.44 10.271-12.829s-6.394-11.02-12.76-10.328c-6.364.692-10.956 6.44-10.27 12.829s6.394 11.02 12.759 10.328Zm-93.782 27.723c10.419-1.133 17.942-10.544 16.818-21.012s-10.473-18.048-20.893-16.915S97.987 71.8 99.111 82.268c1.124 10.47 10.473 18.048 20.893 16.916Z"/><path fill="#3242F5" fill-rule="evenodd" d="M243.125 47.396h4.984v4.984h-4.984zM268.109 48.492h2.792v2.791h-2.792zM290.898 47.895h3.988v3.987h-3.988zM314.891 47.396h4.984v4.984h-4.984z" clip-rule="evenodd"/></svg>
